X:92
T:Crug-y-Bar
M:4/4
L:1/4
Q:90
C:Trad.
R:Hymn
K:D
D | F2 F F | F A2 F | D E2 D | A B2 A/2B/2 | A F2 E
| D3 :|| A | A2 G F | B2 B d | B A2 G | F
A2 B | B2 A F | E3 D/2E/2 | F2 F F | F A2 F |
D E2 D | A B2 A/2B/2 | A F2 E | D3 ||
